X:1
T:Camptown Races WES.046
T:Camptown Races WES.046
L:1/8
Q:1/4=120
M:2/4
K:G
V:1 treble 
V:1
 d | dd (B/c/)d | ed B2 | BA (B/A/).G/.A/ | BA Ad | dd (B/c/)d | ed BB | B/A/G/A/ BA | G(B/d/) g |: %9
 z | G>G Bd | g3 f | e>e ge | d3 (B/c/) | dd (B/c/)d | ed B2 | (B/A/).G/.A/ BA | Gg G :| %18

